X:1
T:James Gibb editions
T:Pleasant are thy courts above - Barnby
%%score [ ( 1 2 3 ) ( 4 5 6 ) ]
L:1/8
Q:1/4=90
M:4/4
K:F
V:1 treble nm="Midi_74"
V:2 treble 
V:3 treble 
V:4 bass nm="Midi_74"
V:5 bass 
V:6 bass 
V:1
"^77. 77. D""^Pleasant are thy courts above""^Joseph Barnby\n(1838-96)""^Henry Francis Lyte\n(1793-1847)" AG A2 | %1
 F2"^1" G2 A2"^1" c2 | c4 || d2 d2 | c2 F2 B2 A2 | G4 || BA B2 | G2 A2 B2 d2 | c4 || %9
[M:4/4] A2 =B2 | c2 =BA ^G2 B2 | A4 || G2 F2 | B3 B B2 c2 | A4 || A2 G2 | c3 c B2 d2 | G4 || %18
 G2 A2 | c2 B2"^Org." A2 G2 | c4 || F2 B2 | A2 GD F2 E2 | F4 | B4 A4 | %25
V:2
 F2 F2 | C2 C2 F2 E2 | F4 || F2 E2 | F2 F2 G2 F2 | E4 || G2 G2 | D2 D2 G2 G2 | G4 ||[M:4/4] F2 F2 | %10
 E2 E2 E2 D2 | C4 || E2 F2 | F2"^1" E2 D2 C2 | (A2 G2) || ^F2 G2 | G2 ^F2 G2 D2 | E4 || G2 A2 | %19
 c2 B2 A2 G2 | c4 || F2 D2 | ^C2 D2 A,2 =C2 | C4 | D4 C4 | %25
V:3
 x4 | x8 | x4 || x4 | x8 | x4 || x4 | x8 | x4 ||[M:4/4] x4 | x8 | x4 || x4 | x8 | x4 || x4 | x8 | %17
 x4 || x4 | x4 [CE]4 | [CF]2 [B,_E]-[A,E] || [B,D]4 | x8 | x4 | x8 | %25
V:4
 CB, C2 | A,2 B,2 C2 B,2 | C4 || B,2 B,2 | A,2 A,2 C2 C2 | C4 || DC D2 | B,2 C2 D2 B,2 | G,4 || %9
[M:4/4] C2 =B,A, | A,2 C2 =B,2 ^G,2 | A,4 || B,2 A,2 | G,2 G,2 F,2 G,2 | C4 || C2 B,2 | %16
 A,2 A,2 B,2 B,2 | G,4 || %18
"^1 Pleasant are thy courts above\nIn the land of light and love;\nPleasant are thy courts below\nIn this land of sin and woe.\nO, my spirit longs and faints\nFor the converse of thy saints,\nFor the brightness of thy face,\nFor thy fullness, God of Grace!\n\n2 Happy birds that sing and fly\nRound thy altars, O most High;\nHappier souls that find a rest\nIn a heavenly Father's breast.\nLike the wandering dove that found\nNo repose on earth around,\nThey can to their ark repair\nAnd enjoy it ever there." G,2 A,2 | %19
 C2 B,2"^Org." A,2 G,2 | C4 || %21
"^3 Happy souls, their praises flow\nEven in this vale of woe;\nWaters in the desert rise,\nManna feeds them from the skies;\nOn they go from strength to strength,\nTill they reach thy throne at length,\nAt thy feet adoring fall,\nWho hast led them safe through all.\n\n4 Lord, be mine this prize to win;\nGuide me through a world of sin;\nKeep me by thy saving grace;\nGive me at thy side a place.\nSun and shield alike thou art;\nGuide and guard my erring heart;\nGrace and glory flow from thee;\nShower, O shower them, Lord, on me!" D2 B,2 | %22
 E,2 G,2 !courtesy!=C2 B,2 | A,4 | F,4 F,4 | %25
V:5
 F,2 F,2 | F,2 F,2 F,2 G,2 | A,4 || B,2 G,2 | A,2 D,2 E,2 F,2 | C,4 || G,2 G,2 | G,2 G,2 G,2 F,2 | %8
 E,4 ||[M:4/4] F,2 D,2 | E,2 E,2 E,2 E,2 | A,,4 || C,2 C,2 | C,2 C,2 D,2 E,2 | (F,2 _E,2) || %15
 D,2 D,2 | D,2 D,2 G,2 B,,2 | C,4 || G,2 A,2 | C2 B,2 A,2 G,2 | C4 || F,2 G,2 | E,2 D,2 C,2 C,2 | %23
 F,4 | B,,4 F,,4 | %25
V:6
 x4 | x8 | x4 || x4 | x8 | x4 || x4 | x8 | x4 ||[M:4/4] x4 | x8 | x4 || x4 | x8 | x4 || x4 | x8 | %17
 x4 || x4 | x4 B,,4 | A,,2 F,,2 || B,,2 G,,2 | A,,2 B,,2 x4 | x4 | x8 | %25

